TV/Source/Prima Love - Dark.svg

<svg height="2.307449mm" viewBox="0 0 7.3997607 2.3074489" width="7.399761mm" xmlns="http://www.w3.org/2000/svg" xmlns:xlink="http://www.w3.org/1999/xlink"><clipPath id="a"><path d="m289.404 506.824h20.976v6.541h-20.976z"/></clipPath><g clip-path="url(#a)" transform="matrix(.35277777 0 0 -.35277777 -102.095404 181.10376)"><g transform="translate(291.3903 510.6342)"><path d="m0 0c0-.156.091-.222.365-.222h.6v.385h-.708c-.158 0-.257-.046-.257-.163m0 .782c0-.186.145-.204.362-.204h.603v.385h-.735c-.144 0-.23-.069-.23-.181m-.211-3.154c-.176 0-.259-.093-.275-.218l-.036-.285h.503l.025.285c.011.127-.045.218-.217.218m.675 4.429c.023-.097.064-.178.17-.178.109 0 .153.084.153.181 0 .206-.119.275-.396.265.039-.061.046-.173.073-.268m-.906-2.822-.045-.31h-.347l.055.31zm-.873.001-.671-2.967h2.951v.408h-1.968l.127.795c.045.285.242.541.673.541.452 0 .617-.206.598-.541l-.018-.347h.588v.971h-1.459l.049.363h.257l.001.004c-.18.053-.239.183-.219.331.004.026.01.071.01.071h.412l-.009-.094c-.011-.121.011-.302.288-.302h.67v.457h-1.331l.042.313h1.289v.124h-1.289v.402h.184v.005c-.134.08-.223.22-.223.38 0 .166.055.295.218.367-.142.104-.218.234-.218.413 0 .421.324.448.581.448h.747v.205c-.067-.085-.17-.138-.312-.138-.438 0-.404.469-.466.77-.016.074-.042.115-.125.115-.101 0-.14-.12-.14-.209 0-.12.055-.196.169-.217v-.405c-.176.007-.29.089-.36.206-.067.118-.094.27-.094.421 0 .277.055.545.329.605h-1.281z" fill="#4a41a1"/></g><path d="m292.976 513.365h1.722v-6.46h-1.722z" fill="#4a41a1"/><g transform="translate(297.8792 508.2842)"><path d="m0 0c .156 0 .297.028.424.085.126.056.232.134.32.232.087.099.154.213.202.344.048.132.072.269.072.412v.018c0 .149-.025.289-.076.42s-.123.246-.216.344c-.094.098-.203.177-.329.237-.127.059-.265.089-.415.089-.156 0-.297-.028-.424-.085-.126-.056-.233-.134-.32-.232-.087-.099-.154-.213-.202-.344-.049-.132-.073-.269-.073-.412v-.017c0-.149.026-.29.077-.421s.123-.245.216-.344c.093-.098.203-.177.329-.237.127-.059.265-.089.415-.089m-.018-1.46c-.391 0-.75.066-1.077.198-.328.132-.612.314-.852.545-.24.232-.427.501-.559.807-.132.307-.198.634-.198.983v.018c0 .348.068.677.203.987.135.309.323.579.563.811.24.231.526.414.856.55.331.135.691.202 1.082.202.39 0 .749-.067 1.077-.202.328-.136.611-.317.852-.546.24-.228.426-.495.559-.802.132-.306.198-.634.198-.982v-.018c0-.349-.068-.678-.203-.987-.135-.31-.323-.58-.563-.812-.241-.231-.526-.414-.856-.549-.331-.136-.692-.203-1.082-.203" fill="#4a41a1"/></g><g transform="translate(300.2857 511.8174)"><path d="m0 0h1.803l.937-2.848.937 2.848h1.776l-1.947-4.912h-1.559z" fill="#4a41a1"/></g><g transform="translate(308.7763 509.7804)"><path d="m0 0c-.03.27-.12.485-.27.644-.151.16-.343.239-.577.239-.229 0-.415-.079-.559-.239-.144-.159-.241-.374-.289-.644zm-.703-2.956c-.385 0-.736.061-1.055.184-.318.124-.593.295-.824.514-.232.219-.412.485-.541.798-.129.312-.194.658-.194 1.036v.018c0 .355.06.687.18.996.12.31.29.58.51.812.219.231.479.413.779.545.301.132.631.198.992.198.42 0 .785-.072 1.095-.216.309-.144.565-.338.766-.581.201-.244.352-.526.451-.848.099-.321.148-.662.148-1.023v-.171c0-.06-.003-.12-.009-.18h-3.262c.066-.271.19-.472.374-.604.183-.132.41-.198.68-.198.204 0 .392.039.563.117.172.078.344.204.519.378l.946-.784c-.234-.3-.524-.541-.87-.721-.345-.18-.761-.27-1.248-.27" fill="#4a41a1"/></g></g></svg>

<?xml version="1.0" encoding="UTF-8" standalone="no"?>
<!-- Created with Inkscape (http://www.inkscape.org/) -->

<svg
   xmlns:dc="http://purl.org/dc/elements/1.1/"
   xmlns:cc="http://creativecommons.org/ns#"
   xmlns:rdf="http://www.w3.org/1999/02/22-rdf-syntax-ns#"
   xmlns:svg="http://www.w3.org/2000/svg"
   xmlns="http://www.w3.org/2000/svg"
   xmlns:sodipodi="http://sodipodi.sourceforge.net/DTD/sodipodi-0.dtd"
   xmlns:inkscape="http://www.inkscape.org/namespaces/inkscape"
   width="7.3997607mm"
   height="2.3074489mm"
   viewBox="0 0 7.3997607 2.3074489"
   version="1.1"
   id="svg96496"
   inkscape:version="0.92.0 r15299"
   sodipodi:docname="Prima Love - Dark.svg">
  <defs
     id="defs96490">
    <clipPath
       clipPathUnits="userSpaceOnUse"
       id="clipPath85916">
      <path
         d="m 289.404,506.824 h 20.976 v 6.541 h -20.976 z"
         id="path85914"
         inkscape:connector-curvature="0" />
    </clipPath>
  </defs>
  <sodipodi:namedview
     id="base"
     pagecolor="#ffffff"
     bordercolor="#666666"
     borderopacity="1.0"
     inkscape:pageopacity="0.0"
     inkscape:pageshadow="2"
     inkscape:zoom="0.35"
     inkscape:cx="-110.30191"
     inkscape:cy="-289.92519"
     inkscape:document-units="mm"
     inkscape:current-layer="layer1"
     showgrid="false"
     fit-margin-top="0"
     fit-margin-left="0"
     fit-margin-right="0"
     fit-margin-bottom="0"
     inkscape:window-width="1920"
     inkscape:window-height="1017"
     inkscape:window-x="-8"
     inkscape:window-y="-8"
     inkscape:window-maximized="1" />
  <metadata
     id="metadata96493">
    <rdf:RDF>
      <cc:Work
         rdf:about="">
        <dc:format>image/svg+xml</dc:format>
        <dc:type
           rdf:resource="http://purl.org/dc/dcmitype/StillImage" />
        <dc:title></dc:title>
      </cc:Work>
    </rdf:RDF>
  </metadata>
  <g
     inkscape:label="Layer 1"
     inkscape:groupmode="layer"
     id="layer1"
     transform="translate(-12.17512,-69.81651)">
    <g
       transform="matrix(0.35277777,0,0,-0.35277777,-89.920284,250.92027)"
       id="g85910">
      <g
         id="g85912"
         clip-path="url(#clipPath85916)">
        <g
           id="g85918"
           transform="translate(291.3903,510.6342)">
          <path
             d="m 0,0 c 0,-0.156 0.091,-0.222 0.365,-0.222 h 0.6 V 0.163 H 0.257 C 0.099,0.163 0,0.117 0,0 M 0,0.782 C 0,0.596 0.145,0.578 0.362,0.578 H 0.965 V 0.963 H 0.23 C 0.086,0.963 0,0.894 0,0.782 m -0.211,-3.154 c -0.176,0 -0.259,-0.093 -0.275,-0.218 l -0.036,-0.285 h 0.503 l 0.025,0.285 c 0.011,0.127 -0.045,0.218 -0.217,0.218 M 0.464,2.057 C 0.487,1.96 0.528,1.879 0.634,1.879 c 0.109,0 0.153,0.084 0.153,0.181 0,0.206 -0.119,0.275 -0.396,0.265 C 0.43,2.264 0.437,2.152 0.464,2.057 m -0.906,-2.822 -0.045,-0.31 h -0.347 l 0.055,0.31 z m -0.873,0.001 -0.671,-2.967 h 2.951 v 0.408 h -1.968 l 0.127,0.795 c 0.045,0.285 0.242,0.541 0.673,0.541 0.452,0 0.617,-0.206 0.598,-0.541 L 0.377,-2.875 h 0.588 v 0.971 h -1.459 l 0.049,0.363 h 0.257 l 0.001,0.004 c -0.18,0.053 -0.239,0.183 -0.219,0.331 0.004,0.026 0.01,0.071 0.01,0.071 H 0.016 L 0.007,-1.229 C -0.004,-1.35 0.018,-1.531 0.295,-1.531 h 0.67 v 0.457 h -1.331 l 0.042,0.313 h 1.289 v 0.124 h -1.289 v 0.402 h 0.184 v 0.005 c -0.134,0.08 -0.223,0.22 -0.223,0.38 0,0.166 0.055,0.295 0.218,0.367 -0.142,0.104 -0.218,0.234 -0.218,0.413 0,0.421 0.324,0.448 0.581,0.448 H 0.965 V 1.583 C 0.898,1.498 0.795,1.445 0.653,1.445 0.215,1.445 0.249,1.914 0.187,2.215 0.171,2.289 0.145,2.33 0.062,2.33 c -0.101,0 -0.14,-0.12 -0.14,-0.209 0,-0.12 0.055,-0.196 0.169,-0.217 V 1.499 c -0.176,0.007 -0.29,0.089 -0.36,0.206 -0.067,0.118 -0.094,0.27 -0.094,0.421 0,0.277 0.055,0.545 0.329,0.605 h -1.281 z"
             style="fill:#4a41a1;fill-opacity:1;fill-rule:nonzero;stroke:none"
             id="path85920"
             inkscape:connector-curvature="0" />
        </g>
        <path
           d="m 292.976,513.365 h 1.722 v -6.46 h -1.722 z"
           style="fill:#4a41a1;fill-opacity:1;fill-rule:nonzero;stroke:none"
           id="path85922"
           inkscape:connector-curvature="0" />
        <g
           id="g85924"
           transform="translate(297.8792,508.2842)">
          <path
             d="M 0,0 C 0.156,0 0.297,0.028 0.424,0.085 0.55,0.141 0.656,0.219 0.744,0.317 0.831,0.416 0.898,0.53 0.946,0.661 0.994,0.793 1.018,0.93 1.018,1.073 V 1.091 C 1.018,1.24 0.993,1.38 0.942,1.511 0.891,1.642 0.819,1.757 0.726,1.855 0.632,1.953 0.523,2.032 0.397,2.092 0.27,2.151 0.132,2.181 -0.018,2.181 -0.174,2.181 -0.315,2.153 -0.442,2.096 -0.568,2.04 -0.675,1.962 -0.762,1.864 -0.849,1.765 -0.916,1.651 -0.964,1.52 -1.013,1.388 -1.037,1.251 -1.037,1.108 V 1.091 c 0,-0.149 0.026,-0.29 0.077,-0.421 C -0.909,0.539 -0.837,0.425 -0.744,0.326 -0.651,0.228 -0.541,0.149 -0.415,0.089 -0.288,0.03 -0.15,0 0,0 m -0.018,-1.46 c -0.391,0 -0.75,0.066 -1.077,0.198 -0.328,0.132 -0.612,0.314 -0.852,0.545 -0.24,0.232 -0.427,0.501 -0.559,0.807 -0.132,0.307 -0.198,0.634 -0.198,0.983 v 0.018 c 0,0.348 0.068,0.677 0.203,0.987 0.135,0.309 0.323,0.579 0.563,0.811 0.24,0.231 0.526,0.414 0.856,0.55 C -0.751,3.574 -0.391,3.641 0,3.641 0.39,3.641 0.749,3.574 1.077,3.439 1.405,3.303 1.688,3.122 1.929,2.893 2.169,2.665 2.355,2.398 2.488,2.091 2.62,1.785 2.686,1.457 2.686,1.109 V 1.091 C 2.686,0.742 2.618,0.413 2.483,0.104 2.348,-0.206 2.16,-0.476 1.92,-0.708 1.679,-0.939 1.394,-1.122 1.064,-1.257 0.733,-1.393 0.372,-1.46 -0.018,-1.46"
             style="fill:#4a41a1;fill-opacity:1;fill-rule:nonzero;stroke:none"
             id="path85926"
             inkscape:connector-curvature="0" />
        </g>
        <g
           id="g85928"
           transform="translate(300.2857,511.8174)">
          <path
             d="M 0,0 H 1.803 L 2.74,-2.848 3.677,0 H 5.453 L 3.506,-4.912 H 1.947 Z"
             style="fill:#4a41a1;fill-opacity:1;fill-rule:nonzero;stroke:none"
             id="path85930"
             inkscape:connector-curvature="0" />
        </g>
        <g
           id="g85932"
           transform="translate(308.7763,509.7804)">
          <path
             d="m 0,0 c -0.03,0.27 -0.12,0.485 -0.27,0.644 -0.151,0.16 -0.343,0.239 -0.577,0.239 -0.229,0 -0.415,-0.079 -0.559,-0.239 C -1.55,0.485 -1.647,0.27 -1.695,0 Z m -0.703,-2.956 c -0.385,0 -0.736,0.061 -1.055,0.184 -0.318,0.124 -0.593,0.295 -0.824,0.514 -0.232,0.219 -0.412,0.485 -0.541,0.798 -0.129,0.312 -0.194,0.658 -0.194,1.036 v 0.018 c 0,0.355 0.06,0.687 0.18,0.996 0.12,0.31 0.29,0.58 0.51,0.812 0.219,0.231 0.479,0.413 0.779,0.545 0.301,0.132 0.631,0.198 0.992,0.198 0.42,0 0.785,-0.072 1.095,-0.216 C 0.548,1.785 0.804,1.591 1.005,1.348 1.206,1.104 1.357,0.822 1.456,0.5 1.555,0.179 1.604,-0.162 1.604,-0.523 v -0.171 c 0,-0.06 -0.003,-0.12 -0.009,-0.18 h -3.262 c 0.066,-0.271 0.19,-0.472 0.374,-0.604 0.183,-0.132 0.41,-0.198 0.68,-0.198 0.204,0 0.392,0.039 0.563,0.117 0.172,0.078 0.344,0.204 0.519,0.378 l 0.946,-0.784 c -0.234,-0.3 -0.524,-0.541 -0.87,-0.721 -0.345,-0.18 -0.761,-0.27 -1.248,-0.27"
             style="fill:#4a41a1;fill-opacity:1;fill-rule:nonzero;stroke:none"
             id="path85934"
             inkscape:connector-curvature="0" />
        </g>
      </g>
    </g>
  </g>
</svg>
